assets/style/末日尸潮-ToonRamp.cube
TITLE "末日尸潮 Toon Ramp"
LUT_3D_SIZE 9
DOMAIN_MIN 0.0 0.0 0.0
DOMAIN_MAX 1.0 1.0 1.0
# 生成自 tokens.json（_tools/gen_assets.py），勿手改
0.005490 0.004706 0.008627
0.079582 0.007628 0.013984
0.183662 0.009323 0.017093
0.272618 0.009412 0.017255
0.359831 0.009412 0.017255
0.447043 0.009412 0.017255
0.534256 0.009412 0.017255
0.621468 0.009412 0.017255
0.708681 0.009412 0.017255
0.010980 0.090744 0.017255
0.089825 0.088257 0.017255
0.177038 0.085769 0.017255
0.264250 0.083282 0.017255
0.351463 0.080794 0.017255
0.438919 0.078340 0.017237
0.566348 0.080142 0.014742
0.757786 0.085968 0.009612
0.928877 0.091720 0.004095
0.010980 0.172076 0.017255
0.081457 0.169589 0.017255
0.170859 0.169334 0.016776
0.286892 0.183865 0.013062
0.442507 0.206120 0.007530
0.623773 0.225707 0.002430
0.791319 0.232844 0.000011
0.927496 0.229246 0.000000
1.000000 0.225600 0.000000
0.007089 0.299036 0.011140
0.090874 0.337801 0.005505
0.230345 0.366649 0.001121
0.371215 0.371215 0.000000
0.507219 0.367569 0.000000
0.643223 0.363923 0.000000
0.779226 0.360276 0.000000
0.915230 0.356630 0.000000
1.000000 0.352984 0.000000
0.000000 0.509537 0.000000
0.086941 0.505891 0.000000
0.222945 0.502245 0.000000
0.358949 0.498599 0.000000
0.494953 0.494953 0.000000
0.630957 0.491307 0.000000
0.766961 0.487661 0.000000
0.902965 0.484015 0.000000
1.000000 0.480369 0.000000
0.000000 0.636922 0.000000
0.074676 0.633276 0.000000
0.210679 0.629629 0.000000
0.346683 0.625983 0.000000
0.482687 0.622337 0.000000
0.618691 0.618691 0.000000
0.754695 0.615045 0.000000
0.890699 0.611399 0.000000
1.000000 0.613324 0.007585
0.000000 0.764306 0.000000
0.062410 0.760660 0.000000
0.198414 0.757014 0.000000
0.334418 0.753368 0.000000
0.470570 0.749809 0.000159
0.618856 0.755124 0.015901
0.772434 0.770536 0.047668
0.917368 0.788575 0.081600
1.000000 0.800632 0.103836
0.000000 0.891690 0.000000
0.054758 0.889255 0.003160
0.220598 0.895031 0.026340
0.392065 0.906419 0.060501
0.550234 0.917929 0.091779
0.684627 0.922934 0.106314
0.804464 0.921493 0.106353
0.924269 0.920034 0.106353
1.000000 0.918574 0.106353
0.082312 0.997095 0.072951
0.190416 0.996028 0.099739
0.320336 0.995765 0.106353
0.440141 0.995765 0.106353
0.559946 0.995765 0.106353
0.679751 0.995765 0.106353
0.799555 0.995765 0.106353
0.919360 0.995765 0.106353
1.000000 0.995765 0.106353
0.006720 0.005760 0.064935
0.086911 0.008403 0.092512
0.184561 0.009412 0.101135
0.271773 0.009412 0.098648
0.358986 0.009412 0.096160
0.446199 0.009412 0.093673
0.533411 0.009412 0.091186
0.620624 0.009412 0.088698
0.707996 0.009407 0.086223
0.010980 0.089899 0.097742
0.088980 0.087412 0.095255
0.176193 0.084924 0.092767
0.263406 0.082437 0.090280
0.350618 0.079950 0.087793
0.443532 0.078221 0.085869
0.590520 0.081887 0.087880
0.793505 0.088118 0.091604
0.955897 0.093018 0.094169
0.010980 0.171231 0.089374
0.080613 0.168744 0.086887
0.174175 0.172733 0.086196
0.299128 0.191090 0.089201
0.460748 0.213573 0.092804
0.638676 0.230000 0.094354
0.790254 0.231654 0.092004
0.926258 0.228008 0.088358
1.000000 0.224362 0.084712
0.005871 0.312290 0.090596
0.092358 0.349528 0.093727
0.232611 0.371320 0.093988
0.369976 0.369976 0.090676
0.505980 0.366330 0.087030
0.641984 0.362684 0.083384
0.777988 0.359038 0.079738
0.913992 0.355392 0.076092
1.000000 0.351746 0.072446
0.000000 0.508299 0.089349
0.085703 0.504653 0.085703
0.221707 0.501007 0.082057
0.357711 0.497361 0.078411
0.493715 0.493715 0.074765
0.629719 0.490069 0.071119
0.765723 0.486423 0.067473
0.901726 0.482776 0.063826
1.000000 0.479130 0.060180
0.000000 0.635683 0.077083
0.073437 0.632037 0.073437
0.209441 0.628391 0.069791
0.345445 0.624745 0.066145
0.481449 0.621099 0.062499
0.617453 0.617453 0.058853
0.753457 0.613807 0.055207
0.889499 0.610227 0.051683
1.000000 0.617835 0.068442
0.000000 0.763068 0.064818
0.061172 0.759422 0.061172
0.197176 0.755776 0.057526
0.333179 0.752129 0.053879
0.471863 0.750065 0.054025
0.625368 0.759576 0.081178
0.779150 0.776775 0.124801
0.921326 0.793805 0.166283
1.000000 0.801670 0.185871
0.000000 0.890452 0.052552
0.062023 0.890294 0.060876
0.234092 0.898520 0.096108
0.404781 0.910622 0.141166
0.557221 0.920724 0.177024
0.684164 0.922457 0.185461
0.803969 0.920997 0.184002
0.923773 0.919538 0.182542
1.000000 0.918079 0.181083
0.094363 0.996670 0.156323
0.197302 0.995836 0.183883
0.319841 0.995765 0.184930
0.439645 0.995765 0.183470
0.559450 0.995765 0.182011
0.679255 0.995765 0.180552
0.799060 0.995765 0.179093
0.918864 0.995765 0.177633
1.000000 0.995765 0.176174
0.007893 0.006765 0.140145
0.092157 0.008988 0.183809
0.183716 0.009412 0.189991
0.270929 0.009412 0.187503
0.358141 0.009412 0.185016
0.445354 0.009412 0.182528
0.532566 0.009412 0.180041
0.619779 0.009412 0.177553
0.713506 0.009203 0.176680
0.010980 0.089054 0.186598
0.088136 0.086567 0.184110
0.175348 0.084080 0.181623
0.262561 0.081592 0.179135
0.349773 0.079105 0.176648
0.454415 0.078912 0.179670
0.618089 0.083923 0.195734
0.828315 0.090108 0.215678
0.977780 0.093779 0.230325
0.010980 0.170387 0.178230
0.079838 0.168093 0.175917
0.179171 0.177847 0.184465
0.312175 0.198785 0.203042
0.477500 0.220323 0.222088
0.648358 0.232483 0.232646
0.789016 0.230416 0.230416
0.925020 0.226770 0.226770
1.000000 0.223123 0.223123
0.004635 0.325658 0.210406
0.093422 0.359468 0.227367
0.232729 0.372375 0.232729
0.368738 0.368738 0.229088
0.504742 0.365092 0.225442
0.640746 0.361446 0.221796
0.776750 0.357800 0.218150
0.912754 0.354154 0.214504
1.000000 0.350508 0.210858
0.000000 0.507061 0.227761
0.084465 0.503415 0.224115
0.220469 0.499769 0.220469
0.356473 0.496123 0.216823
0.492476 0.492476 0.213176
0.628480 0.488830 0.209530
0.764484 0.485184 0.205884
0.900488 0.481538 0.202238
1.000000 0.477892 0.198592
0.000000 0.634445 0.215495
0.072199 0.630799 0.211849
0.208203 0.627153 0.208203
0.344207 0.623507 0.204557
0.480211 0.619861 0.200911
0.616215 0.616215 0.197265
0.752219 0.612569 0.193619
0.889299 0.610779 0.192926
1.000000 0.623866 0.215600
0.000000 0.761829 0.203229
0.059933 0.758183 0.199583
0.195937 0.754537 0.195937
0.331941 0.750891 0.192291
0.475947 0.751992 0.198482
0.633054 0.764925 0.228381
0.785845 0.783004 0.267414
0.924489 0.797988 0.298979
1.000000 0.801228 0.306761
0.000363 0.889335 0.191334
0.072792 0.892335 0.207309
0.248696 0.902466 0.242383
0.416635 0.914605 0.280679
0.561797 0.922488 0.305180
0.683668 0.921961 0.306229
0.803473 0.920502 0.304770
0.923278 0.919043 0.303311
1.000000 0.917583 0.301852
0.104769 0.996302 0.292127
0.199539 0.995765 0.307157
0.319345 0.995765 0.305698
0.439150 0.995765 0.304239
0.558955 0.995765 0.302780
0.678759 0.995765 0.301320
0.798564 0.995765 0.299861
0.918369 0.995765 0.298402
1.000000 0.995765 0.296942
0.008954 0.007675 0.231446
0.094884 0.009335 0.279053
0.182871 0.009412 0.278846
0.270084 0.009412 0.276358
0.357296 0.009412 0.273871
0.444509 0.009412 0.271384
0.531722 0.009412 0.268896
0.618934 0.009412 0.266409
0.727255 0.008736 0.272695
0.010980 0.088210 0.275453
0.087291 0.085722 0.272965
0.174503 0.083235 0.270478
0.261716 0.080747 0.267991
0.349212 0.078309 0.265697
0.470372 0.080229 0.281299
0.647626 0.086089 0.314679
0.860557 0.091804 0.349753
0.992941 0.093889 0.371039
0.010980 0.169542 0.267085
0.079790 0.169470 0.268279
0.185425 0.184246 0.292253
0.325380 0.206544 0.328080
0.491877 0.225986 0.359894
0.651701 0.232799 0.372435
0.787777 0.229177 0.368827
0.923781 0.225531 0.365181
1.000000 0.221885 0.361535
0.003439 0.338487 0.340943
0.093953 0.366992 0.367476
0.231496 0.371146 0.371146
0.367500 0.367500 0.367500
0.503504 0.363854 0.363854
0.639508 0.360208 0.360208
0.775512 0.356562 0.356562
0.911516 0.352916 0.352916
1.000000 0.349270 0.349270
0.000000 0.505823 0.366173
0.083227 0.502177 0.362526
0.219230 0.498530 0.358880
0.355234 0.494884 0.355234
0.491238 0.491238 0.351588
0.627242 0.487592 0.347942
0.763246 0.483946 0.344296
0.899250 0.480300 0.340650
1.000000 0.476654 0.337004
0.000000 0.633207 0.353907
0.070961 0.629561 0.350261
0.206965 0.625915 0.346615
0.342969 0.622269 0.342969
0.478973 0.618623 0.339323
0.614976 0.614976 0.335676
0.750980 0.611330 0.332030
0.890395 0.613528 0.336273
1.000000 0.631046 0.360944
0.000000 0.760591 0.341641
0.058695 0.756945 0.337995
0.194699 0.753299 0.334349
0.330950 0.749775 0.330921
0.482364 0.755342 0.343444
0.641506 0.770876 0.372715
0.792158 0.788886 0.405280
0.926546 0.800740 0.426547
1.000000 0.800733 0.427529
0.003848 0.889283 0.332740
0.086310 0.895209 0.352845
0.263704 0.906653 0.384933
0.426972 0.918106 0.415134
0.563353 0.922918 0.428441
0.683173 0.921466 0.426998
0.802978 0.920006 0.425539
0.922782 0.918547 0.424079
1.000000 0.917088 0.422620
0.112919 0.996015 0.422760
0.199045 0.995765 0.427926
0.318850 0.995765 0.426467
0.438654 0.995765 0.425007
0.558459 0.995765 0.423548
0.678264 0.995765 0.422089
0.798068 0.995765 0.420629
0.917873 0.995765 0.419170
1.000000 0.995765 0.417711
0.009847 0.008440 0.334215
0.094814 0.009412 0.370189
0.182027 0.009412 0.367701
0.269239 0.009412 0.365214
0.356452 0.009412 0.362726
0.443664 0.009412 0.360239
0.530877 0.009412 0.357751
0.618395 0.009403 0.355425
0.747810 0.008054 0.377543
0.010980 0.087365 0.364308
0.086446 0.084878 0.361821
0.173659 0.082390 0.359333
0.260871 0.079903 0.356846
0.352928 0.078240 0.359033
0.490214 0.081994 0.393217
0.677714 0.088233 0.444947
0.888582 0.093076 0.491832
0.999774 0.093243 0.512088
0.010980 0.168697 0.355940
0.080485 0.172976 0.368008
0.192523 0.191508 0.411210
0.338098 0.213969 0.463737
0.503004 0.230188 0.503417
0.650535 0.231585 0.510885
0.786539 0.227939 0.507239
0.922543 0.224293 0.503593
1.000000 0.220647 0.499947
0.002337 0.350131 0.480818
0.093850 0.371479 0.510435
0.230258 0.369908 0.509558
0.366262 0.366262 0.505912
0.502266 0.362616 0.502266
0.638270 0.358970 0.498620
0.774273 0.355324 0.494974
0.910277 0.351677 0.491327
1.000000 0.348031 0.487681
0.000000 0.504584 0.504584
0.081988 0.500938 0.500938
0.217992 0.497292 0.497292
0.353996 0.493646 0.493646
0.490000 0.490000 0.490000
0.626004 0.486354 0.486354
0.762008 0.482708 0.482708
0.898012 0.479062 0.479062
1.000000 0.475416 0.475416
0.000000 0.631969 0.492319
0.069723 0.628323 0.488673
0.205727 0.624677 0.485026
0.341730 0.621030 0.481380
0.477734 0.617384 0.477734
0.613738 0.613738 0.474088
0.749826 0.610195 0.470557
0.892613 0.618133 0.479812
1.000000 0.638990 0.503346
0.000000 0.759353 0.480053
0.057457 0.755707 0.476407
0.193461 0.752061 0.472761
0.332904 0.750130 0.471624
0.490641 0.759852 0.487283
0.650300 0.777123 0.513337
0.797717 0.794068 0.538342
0.927172 0.801666 0.549714
1.000000 0.800237 0.548298
0.010531 0.890382 0.475447
0.101805 0.898729 0.496143
0.278395 0.910851 0.523199
0.435118 0.920851 0.544758
0.562873 0.922429 0.549226
0.682677 0.920970 0.547766
0.802482 0.919511 0.546307
0.922287 0.918051 0.544848
1.000000 0.916592 0.543388
0.118199 0.995828 0.548733
0.198549 0.995765 0.548694
0.318354 0.995765 0.547235
0.438159 0.995765 0.545776
0.557963 0.995765 0.544316
0.677768 0.995765 0.542857
0.797573 0.995765 0.541398
0.917378 0.995765 0.539939
1.000000 0.995765 0.538479
0.010516 0.009014 0.442014
0.093969 0.009412 0.459044
0.181182 0.009412 0.456556
0.268394 0.009412 0.454069
0.355607 0.009412 0.451582
0.442820 0.009412 0.449094
0.530032 0.009412 0.446607
0.625228 0.009183 0.449523
0.773719 0.007206 0.493485
0.010980 0.086520 0.453163
0.085601 0.084033 0.450676
0.172814 0.081545 0.448189
0.260027 0.079058 0.445701
0.361486 0.078971 0.460950
0.512763 0.084041 0.516874
0.706941 0.090211 0.585759
0.910746 0.093803 0.638909
1.000000 0.092024 0.650624
0.010946 0.168106 0.445495
0.081748 0.178172 0.477973
0.200059 0.199217 0.541975
0.349690 0.220669 0.608422
0.510010 0.232561 0.648837
0.649297 0.230347 0.649297
0.785301 0.226701 0.645651
0.921305 0.223055 0.642005
1.000000 0.219409 0.638359
0.001387 0.359953 0.627629
0.093016 0.372315 0.651615
0.229020 0.368670 0.647970
0.365024 0.365024 0.644324
0.501027 0.361377 0.640677
0.637031 0.357731 0.637031
0.773035 0.354085 0.633385
0.909039 0.350439 0.629739
1.000000 0.346793 0.626093
0.000000 0.503346 0.642996
0.080750 0.499700 0.639350
0.216754 0.496054 0.635704
0.352758 0.492408 0.632058
0.488762 0.488762 0.628412
0.624766 0.485116 0.624766
0.760770 0.481470 0.621120
0.896773 0.477824 0.617474
1.000000 0.474177 0.613827
0.000000 0.630730 0.630730
0.068484 0.627084 0.627084
0.204488 0.623438 0.623438
0.340492 0.619792 0.619792
0.476496 0.616146 0.616146
0.612500 0.612500 0.612500
0.750157 0.610877 0.610631
0.895763 0.624237 0.621988
1.000000 0.647297 0.642036
0.000000 0.758115 0.618465
0.056219 0.754469 0.614819
0.192223 0.750823 0.611173
0.338121 0.752143 0.613238
0.500290 0.765241 0.628731
0.658997 0.783342 0.649764
0.802131 0.798181 0.666900
0.926700 0.801201 0.670525
1.000000 0.799742 0.669066
0.019801 0.892474 0.617689
0.118492 0.902694 0.636219
0.292033 0.914814 0.656986
0.440386 0.922550 0.670138
0.562377 0.921934 0.669994
0.682182 0.920474 0.668535
0.801986 0.919015 0.667075
0.921791 0.917556 0.665616
1.000000 0.916097 0.664157
0.120000 0.995765 0.670922
0.198054 0.995765 0.669463
0.317858 0.995765 0.668003
0.437663 0.995765 0.666544
0.557468 0.995765 0.665085
0.677273 0.995765 0.663626
0.797077 0.995765 0.662166
0.916882 0.995765 0.660707
1.000000 0.995765 0.659248
0.010905 0.009347 0.546590
0.093125 0.009412 0.547899
0.180337 0.009412 0.545412
0.267550 0.009412 0.542924
0.354762 0.009412 0.540437
0.441975 0.009412 0.537949
0.529187 0.009412 0.535462
0.641111 0.008703 0.553452
0.803515 0.006239 0.621770
0.010980 0.085675 0.542019
0.084757 0.083188 0.539531
0.171969 0.080701 0.537044
0.259465 0.078281 0.535155
0.373946 0.080316 0.574118
0.536846 0.086210 0.652709
0.733903 0.091886 0.735325
0.925415 0.093874 0.786964
1.000000 0.090786 0.789036
0.010624 0.169612 0.542480
0.083413 0.184630 0.600030
0.207633 0.206968 0.684176
0.359527 0.226261 0.759534
0.512035 0.232746 0.791324
0.648059 0.229109 0.787709
0.784063 0.225463 0.784063
0.920067 0.221817 0.780417
1.000000 0.218171 0.776771
0.000643 0.367325 0.777963
0.091777 0.371077 0.790027
0.227781 0.367431 0.786381
0.363785 0.363785 0.782735
0.499789 0.360139 0.779089
0.635793 0.356493 0.775443
0.771797 0.352847 0.771797
0.907801 0.349201 0.768151
1.000000 0.345555 0.764505
0.000000 0.502108 0.781408
0.079512 0.498462 0.777762
0.215516 0.494816 0.774116
0.351520 0.491170 0.770470
0.487524 0.487524 0.766824
0.623527 0.483877 0.763177
0.759531 0.480231 0.759531
0.895535 0.476585 0.755885
1.000000 0.472939 0.752239
0.000000 0.629492 0.769142
0.067246 0.625846 0.765496
0.203250 0.622200 0.761850
0.339254 0.618554 0.758204
0.475258 0.614908 0.754558
0.611262 0.611262 0.750912
0.752280 0.613738 0.751211
0.899638 0.631470 0.761610
1.000000 0.655550 0.776607
0.000000 0.756877 0.756877
0.054980 0.753230 0.753230
0.191365 0.749748 0.749721
0.346048 0.755564 0.754069
0.510808 0.771218 0.766882
0.667143 0.789195 0.781873
0.804995 0.800843 0.791617
0.926205 0.800705 0.791294
1.000000 0.799246 0.789834
0.031044 0.895389 0.758061
0.135569 0.906888 0.772454
0.303865 0.918280 0.786454
0.442074 0.922896 0.792220
0.561881 0.921438 0.790762
0.681686 0.919979 0.789303
0.801491 0.918520 0.787844
0.921296 0.917060 0.786385
1.000000 0.915601 0.784925
0.120000 0.995765 0.791690
0.197558 0.995765 0.790231
0.317363 0.995765 0.788772
0.437168 0.995765 0.787313
0.556972 0.995765 0.785853
0.676777 0.995765 0.784394
0.796582 0.995765 0.782935
0.916386 0.995765 0.781475
1.000000 0.995765 0.780016
0.010980 0.009412 0.639242
0.092280 0.009412 0.636754
0.179492 0.009412 0.634267
0.266705 0.009412 0.631779
0.353918 0.009412 0.629292
0.441130 0.009412 0.626805
0.528737 0.009398 0.624774
0.664338 0.008011 0.669679
0.835712 0.005202 0.762636
0.010980 0.084831 0.630874
0.083912 0.082343 0.628386
0.171125 0.079856 0.625899
0.262118 0.078261 0.632875
0.389373 0.082102 0.700189
0.561300 0.088348 0.800148
0.757206 0.093131 0.890842
0.930963 0.093184 0.930965
1.000000 0.089548 0.927448
0.010011 0.173223 0.650932
0.085320 0.191927 0.735021
0.214857 0.214363 0.836426
0.366988 0.230370 0.913459
0.510817 0.231517 0.929767
0.646821 0.227871 0.926121
0.782824 0.224224 0.922474
0.918828 0.220578 0.918828
1.000000 0.216932 0.915182
0.000162 0.371626 0.927394
0.090539 0.369839 0.928439
0.226543 0.366193 0.924793
0.362547 0.362547 0.921147
0.498551 0.358901 0.917501
0.634555 0.355255 0.913855
0.770559 0.351609 0.910209
0.906563 0.347963 0.906563
1.000000 0.344317 0.902917
0.000000 0.500870 0.919820
0.078274 0.497224 0.916174
0.214277 0.493577 0.912527
0.350281 0.489931 0.908881
0.486285 0.486285 0.905235
0.622289 0.482639 0.901589
0.758293 0.478993 0.897943
0.894297 0.475347 0.894297
1.000000 0.471701 0.890651
0.000000 0.628254 0.907554
0.066008 0.624608 0.903908
0.202012 0.620962 0.900262
0.338016 0.617316 0.896616
0.474020 0.613670 0.892970
0.610178 0.610170 0.889382
0.755923 0.618435 0.890680
0.904020 0.639445 0.897844
1.000000 0.663319 0.907010
0.000000 0.755638 0.895288
0.053742 0.751992 0.891642
0.194039 0.750201 0.888979
0.356118 0.760130 0.892788
0.521677 0.777472 0.901188
0.674269 0.794327 0.909902
0.805890 0.801656 0.913513
0.925709 0.800210 0.912062
1.000000 0.798751 0.910603
0.043649 0.898939 0.895515
0.152222 0.911079 0.904585
0.313125 0.920975 0.912128
0.441581 0.922402 0.912990
0.561386 0.920943 0.911531
0.681191 0.919483 0.910072
0.800995 0.918024 0.908612
0.920800 0.916565 0.907153
1.000000 0.915105 0.905694
0.120000 0.995765 0.912459
0.197063 0.995765 0.911000
0.316867 0.995765 0.909540
0.436672 0.995765 0.908081
0.556477 0.995765 0.906622
0.676281 0.995765 0.905162
0.796086 0.995765 0.903703
0.915891 0.995765 0.902244
1.000000 0.995765 0.900785
0.010980 0.009412 0.728097
0.091435 0.009412 0.725610
0.178648 0.009412 0.723122
0.265860 0.009412 0.720635
0.353073 0.009412 0.718147
0.440285 0.009412 0.715660
0.534866 0.009163 0.720758
0.693211 0.007155 0.780052
0.868808 0.004142 0.871570
0.010980 0.083986 0.719729
0.083067 0.081499 0.717242
0.170280 0.079011 0.714754
0.268212 0.079031 0.736297
0.406845 0.084160 0.811589
0.584969 0.090313 0.905580
0.775463 0.093825 0.980241
0.929856 0.091956 1.000000
1.000000 0.088310 1.000000
0.009161 0.178501 0.759197
0.087319 0.199649 0.845617
0.221347 0.221011 0.937041
0.371459 0.232631 0.994967
0.509578 0.230278 1.000000
0.645582 0.226632 1.000000
0.781586 0.222986 1.000000
0.917590 0.219340 1.000000
1.000000 0.215694 1.000000
0.000000 0.372247 1.000000
0.089301 0.368601 1.000000
0.225305 0.364955 1.000000
0.361309 0.361309 1.000000
0.497313 0.357663 1.000000
0.633317 0.354017 1.000000
0.769321 0.350371 1.000000
0.905324 0.346724 1.000000
1.000000 0.343078 1.000000
0.000000 0.499631 1.000000
0.077035 0.495985 1.000000
0.213039 0.492339 1.000000
0.349043 0.488693 1.000000
0.485047 0.485047 1.000000
0.621051 0.481401 1.000000
0.757055 0.477755 1.000000
0.893059 0.474109 1.000000
1.000000 0.470575 0.999984
0.000000 0.627016 1.000000
0.064770 0.623370 1.000000
0.200774 0.619724 1.000000
0.336777 0.616077 1.000000
0.472781 0.612431 1.000000
0.611101 0.610981 0.999613
0.760804 0.624612 0.996665
0.908672 0.647760 0.992287
1.000000 0.670156 0.988260
0.000000 0.754400 1.000000
0.052504 0.750754 1.000000
0.200438 0.752298 0.998818
0.367748 0.765560 0.995143
0.532364 0.783679 0.990687
0.679891 0.798370 0.987228
0.805409 0.801174 0.986353
0.925214 0.799714 0.986353
1.000000 0.798255 0.986353
0.057001 0.902922 0.993518
0.167618 0.915021 0.989219
0.319031 0.922607 0.986565
0.441086 0.921906 0.986353
0.560890 0.920447 0.986353
0.680695 0.918988 0.986353
0.800500 0.917528 0.986353
0.920304 0.916069 0.986353
1.000000 0.914610 0.986353
0.120000 0.995765 0.986353
0.196567 0.995765 0.986353
0.316372 0.995765 0.986353
0.436176 0.995765 0.986353
0.555981 0.995765 0.986353
0.675786 0.995765 0.986353
0.795591 0.995765 0.986353
0.915395 0.995765 0.986353
1.000000 0.995765 0.986353
