assets/style/末日尸潮-ToonRamp.cube
TITLE "末日尸潮 Toon Ramp"
LUT_3D_SIZE 5
DOMAIN_MIN 0.0 0.0 0.0
DOMAIN_MAX 1.0 1.0 1.0
# 生成自 tokens.json（_tools/gen_assets.py），勿手改
0.005490 0.004706 0.008627
0.183662 0.009323 0.017093
0.359831 0.009412 0.017255
0.534256 0.009412 0.017255
0.708681 0.009412 0.017255
0.010980 0.172076 0.017255
0.170859 0.169334 0.016776
0.442507 0.206120 0.007530
0.791319 0.232844 0.000011
1.000000 0.225600 0.000000
0.000000 0.509537 0.000000
0.222945 0.502245 0.000000
0.494953 0.494953 0.000000
0.766961 0.487661 0.000000
1.000000 0.480369 0.000000
0.000000 0.764306 0.000000
0.198414 0.757014 0.000000
0.470570 0.749809 0.000159
0.772434 0.770536 0.047668
1.000000 0.800632 0.103836
0.082312 0.997095 0.072951
0.320336 0.995765 0.106353
0.559946 0.995765 0.106353
0.799555 0.995765 0.106353
1.000000 0.995765 0.106353
0.007893 0.006765 0.140145
0.183716 0.009412 0.189991
0.358141 0.009412 0.185016
0.532566 0.009412 0.180041
0.713506 0.009203 0.176680
0.010980 0.170387 0.178230
0.179171 0.177847 0.184465
0.477500 0.220323 0.222088
0.789016 0.230416 0.230416
1.000000 0.223123 0.223123
0.000000 0.507061 0.227761
0.220469 0.499769 0.220469
0.492476 0.492476 0.213176
0.764484 0.485184 0.205884
1.000000 0.477892 0.198592
0.000000 0.761829 0.203229
0.195937 0.754537 0.195937
0.475947 0.751992 0.198482
0.785845 0.783004 0.267414
1.000000 0.801228 0.306761
0.104769 0.996302 0.292127
0.319345 0.995765 0.305698
0.558955 0.995765 0.302780
0.798564 0.995765 0.299861
1.000000 0.995765 0.296942
0.009847 0.008440 0.334215
0.182027 0.009412 0.367701
0.356452 0.009412 0.362726
0.530877 0.009412 0.357751
0.747810 0.008054 0.377543
0.010980 0.168697 0.355940
0.192523 0.191508 0.411210
0.503004 0.230188 0.503417
0.786539 0.227939 0.507239
1.000000 0.220647 0.499947
0.000000 0.504584 0.504584
0.217992 0.497292 0.497292
0.490000 0.490000 0.490000
0.762008 0.482708 0.482708
1.000000 0.475416 0.475416
0.000000 0.759353 0.480053
0.193461 0.752061 0.472761
0.490641 0.759852 0.487283
0.797717 0.794068 0.538342
1.000000 0.800237 0.548298
0.118199 0.995828 0.548733
0.318354 0.995765 0.547235
0.557963 0.995765 0.544316
0.797573 0.995765 0.541398
1.000000 0.995765 0.538479
0.010905 0.009347 0.546590
0.180337 0.009412 0.545412
0.354762 0.009412 0.540437
0.529187 0.009412 0.535462
0.803515 0.006239 0.621770
0.010624 0.169612 0.542480
0.207633 0.206968 0.684176
0.512035 0.232746 0.791324
0.784063 0.225463 0.784063
1.000000 0.218171 0.776771
0.000000 0.502108 0.781408
0.215516 0.494816 0.774116
0.487524 0.487524 0.766824
0.759531 0.480231 0.759531
1.000000 0.472939 0.752239
0.000000 0.756877 0.756877
0.191365 0.749748 0.749721
0.510808 0.771218 0.766882
0.804995 0.800843 0.791617
1.000000 0.799246 0.789834
0.120000 0.995765 0.791690
0.317363 0.995765 0.788772
0.556972 0.995765 0.785853
0.796582 0.995765 0.782935
1.000000 0.995765 0.780016
0.010980 0.009412 0.728097
0.178648 0.009412 0.723122
0.353073 0.009412 0.718147
0.534866 0.009163 0.720758
0.868808 0.004142 0.871570
0.009161 0.178501 0.759197
0.221347 0.221011 0.937041
0.509578 0.230278 1.000000
0.781586 0.222986 1.000000
1.000000 0.215694 1.000000
0.000000 0.499631 1.000000
0.213039 0.492339 1.000000
0.485047 0.485047 1.000000
0.757055 0.477755 1.000000
1.000000 0.470575 0.999984
0.000000 0.754400 1.000000
0.200438 0.752298 0.998818
0.532364 0.783679 0.990687
0.805409 0.801174 0.986353
1.000000 0.798255 0.986353
0.120000 0.995765 0.986353
0.316372 0.995765 0.986353
0.555981 0.995765 0.986353
0.795591 0.995765 0.986353
1.000000 0.995765 0.986353
