assets/style/末日尸潮-ToonRamp.cube
TITLE "末日尸潮 Toon Ramp"
LUT_3D_SIZE 17
DOMAIN_MIN 0.0 0.0 0.0
DOMAIN_MAX 1.0 1.0 1.0
# 生成自 tokens.json（_tools/gen_assets.py），勿手改
0.005490 0.004706 0.008627
0.036212 0.006244 0.011447
0.079582 0.007628 0.013984
0.131160 0.008706 0.015960
0.183662 0.009323 0.017093
0.229012 0.009412 0.017255
0.272618 0.009412 0.017255
0.316224 0.009412 0.017255
0.359831 0.009412 0.017255
0.403437 0.009412 0.017255
0.447043 0.009412 0.017255
0.490650 0.009412 0.017255
0.534256 0.009412 0.017255
0.577862 0.009412 0.017255
0.621468 0.009412 0.017255
0.665075 0.009412 0.017255
0.708681 0.009412 0.017255
0.010490 0.047843 0.016485
0.050361 0.048793 0.017241
0.094009 0.047590 0.017255
0.137615 0.046347 0.017255
0.181222 0.045103 0.017255
0.224828 0.043859 0.017255
0.268434 0.042616 0.017255
0.312041 0.041372 0.017255
0.355647 0.040128 0.017255
0.399253 0.038884 0.017255
0.442859 0.037641 0.017255
0.486466 0.036397 0.017255
0.530072 0.035153 0.017255
0.573678 0.033910 0.017255
0.624690 0.032790 0.016866
0.696192 0.031935 0.015459
0.772400 0.031177 0.013290
0.010980 0.090744 0.017255
0.046219 0.089500 0.017255
0.089825 0.088257 0.017255
0.133431 0.087013 0.017255
0.177038 0.085769 0.017255
0.220644 0.084525 0.017255
0.264250 0.083282 0.017255
0.307857 0.082038 0.017255
0.351463 0.080794 0.017255
0.395069 0.079551 0.017255
0.438919 0.078340 0.017237
0.493965 0.078458 0.016460
0.566348 0.080142 0.014742
0.655131 0.082823 0.012366
0.757786 0.085968 0.009612
0.865477 0.089086 0.006761
0.928877 0.091720 0.004095
0.010980 0.131410 0.017255
0.042035 0.130166 0.017255
0.085641 0.128923 0.017255
0.129248 0.127679 0.017255
0.172854 0.126435 0.017255
0.216460 0.125191 0.017255
0.260066 0.123948 0.017255
0.305231 0.123267 0.017080
0.360989 0.125691 0.015928
0.429846 0.130681 0.013939
0.511658 0.137276 0.011393
0.604686 0.144551 0.008571
0.705604 0.151619 0.005755
0.809497 0.157633 0.003225
0.909857 0.161780 0.001263
0.996974 0.163287 0.000150
1.000000 0.161908 0.000000
0.010980 0.172076 0.017255
0.037851 0.170832 0.017255
0.081457 0.169589 0.017255
0.125064 0.168345 0.017255
0.170859 0.169334 0.016776
0.224050 0.174961 0.015286
0.286892 0.183865 0.013062
0.360026 0.194691 0.010382
0.442507 0.206120 0.007530
0.531798 0.216872 0.004786
0.623773 0.225707 0.002430
0.712715 0.231420 0.000745
0.791319 0.232844 0.000011
0.859494 0.231069 0.000000
0.927496 0.229246 0.000000
0.995498 0.227423 0.000000
1.000000 0.225600 0.000000
0.010953 0.213007 0.017212
0.033862 0.217096 0.016336
0.081678 0.226666 0.014547
0.136480 0.239931 0.012124
0.199700 0.255143 0.009349
0.271181 0.270590 0.006504
0.349179 0.284601 0.003868
0.430355 0.295540 0.001724
0.509785 0.301810 0.000353
0.581353 0.302053 0.000000
0.649355 0.300230 0.000000
0.717357 0.298407 0.000000
0.785359 0.296584 0.000000
0.853361 0.294761 0.000000
0.921363 0.292938 0.000000
0.989365 0.291115 0.000000
1.000000 0.289292 0.000000
0.007089 0.299036 0.011140
0.030376 0.318630 0.008307
0.090874 0.337801 0.005505
0.158379 0.354483 0.003016
0.230345 0.366649 0.001121
0.302636 0.372306 0.000100
0.371215 0.371215 0.000000
0.439217 0.369392 0.000000
0.507219 0.367569 0.000000
0.575221 0.365746 0.000000
0.643223 0.363923 0.000000
0.711224 0.362099 0.000000
0.779226 0.360276 0.000000
0.847228 0.358453 0.000000
0.915230 0.356630 0.000000
0.983232 0.354807 0.000000
1.000000 0.352984 0.000000
0.001427 0.426120 0.002243
0.025080 0.438474 0.000633
0.093073 0.442190 0.000001
0.161076 0.440376 0.000000
0.229078 0.438553 0.000000
0.297080 0.436730 0.000000
0.365082 0.434907 0.000000
0.433084 0.433084 0.000000
0.501086 0.431261 0.000000
0.569088 0.429438 0.000000
0.637090 0.427615 0.000000
0.705092 0.425792 0.000000
0.773094 0.423969 0.000000
0.841096 0.422146 0.000000
0.909097 0.420322 0.000000
0.977099 0.418499 0.000000
1.000000 0.416676 0.000000
0.000000 0.509537 0.000000
0.018939 0.507714 0.000000
0.086941 0.505891 0.000000
0.154943 0.504068 0.000000
0.222945 0.502245 0.000000
0.290947 0.500422 0.000000
0.358949 0.498599 0.000000
0.426951 0.496776 0.000000
0.494953 0.494953 0.000000
0.562955 0.493130 0.000000
0.630957 0.491307 0.000000
0.698959 0.489484 0.000000
0.766961 0.487661 0.000000
0.834963 0.485838 0.000000
0.902965 0.484015 0.000000
0.970967 0.482192 0.000000
1.000000 0.480369 0.000000
0.000000 0.573229 0.000000
0.012806 0.571406 0.000000
0.080808 0.569583 0.000000
0.148810 0.567760 0.000000
0.216812 0.565937 0.000000
0.284814 0.564114 0.000000
0.352816 0.562291 0.000000
0.420818 0.560468 0.000000
0.488820 0.558645 0.000000
0.556822 0.556822 0.000000
0.624824 0.554999 0.000000
0.692826 0.553176 0.000000
0.760828 0.551353 0.000000
0.828830 0.549530 0.000000
0.896832 0.547707 0.000000
0.964834 0.545884 0.000000
1.000000 0.544061 0.000000
0.000000 0.636922 0.000000
0.006674 0.635099 0.000000
0.074676 0.633276 0.000000
0.142677 0.631452 0.000000
0.210679 0.629629 0.000000
0.278681 0.627806 0.000000
0.346683 0.625983 0.000000
0.414685 0.624160 0.000000
0.482687 0.622337 0.000000
0.550689 0.620514 0.000000
0.618691 0.618691 0.000000
0.686693 0.616868 0.000000
0.754695 0.615045 0.000000
0.822697 0.613222 0.000000
0.890699 0.611399 0.000000
0.958984 0.610193 0.000852
1.000000 0.613324 0.007585
0.000000 0.700614 0.000000
0.000541 0.698791 0.000000
0.068543 0.696968 0.000000
0.136545 0.695145 0.000000
0.204547 0.693322 0.000000
0.272549 0.691499 0.000000
0.340550 0.689675 0.000000
0.408552 0.687852 0.000000
0.476554 0.686029 0.000000
0.544556 0.684206 0.000000
0.612558 0.682383 0.000000
0.680560 0.680560 0.000000
0.750099 0.680395 0.002584
0.822496 0.684367 0.011435
0.895596 0.691592 0.024924
0.967707 0.701047 0.041318
1.000000 0.711639 0.058883
0.000000 0.764306 0.000000
0.000000 0.762483 0.000000
0.062410 0.760660 0.000000
0.130412 0.758837 0.000000
0.198414 0.757014 0.000000
0.266416 0.755191 0.000000
0.334418 0.753368 0.000000
0.402420 0.751545 0.000000
0.470570 0.749809 0.000159
0.542851 0.750782 0.005160
0.618856 0.755124 0.015901
0.696053 0.762008 0.030648
0.772434 0.770536 0.047668
0.846523 0.779739 0.065230
0.917368 0.788575 0.081600
0.984547 0.795934 0.095047
1.000000 0.800632 0.103836
0.000000 0.827998 0.000000
0.000000 0.826175 0.000000
0.056277 0.824352 0.000000
0.124279 0.822529 0.000000
0.192281 0.820706 0.000000
0.261727 0.819445 0.001206
0.337810 0.821105 0.008497
0.418120 0.825400 0.020897
0.499812 0.831627 0.036672
0.580567 0.839011 0.054090
0.658596 0.846707 0.071419
0.732636 0.853797 0.086925
0.801954 0.859295 0.098877
0.866344 0.862141 0.105540
0.926724 0.861856 0.106353
0.986626 0.861127 0.106353
1.000000 0.860397 0.106353
0.000000 0.891690 0.000000
0.000000 0.889867 0.000000
0.054758 0.889255 0.003160
0.135462 0.891143 0.012511
0.220598 0.895031 0.026340
0.307009 0.900340 0.042914
0.392065 0.906419 0.060501
0.473664 0.912546 0.077366
0.550234 0.917929 0.091779
0.620727 0.921704 0.102006
0.684627 0.922934 0.106314
0.744562 0.922223 0.106353
0.804464 0.921493 0.106353
0.864367 0.920763 0.106353
0.924269 0.920034 0.106353
0.984171 0.919304 0.106353
1.000000 0.918574 0.106353
0.019316 0.960701 0.017119
0.043251 0.963878 0.032148
0.117691 0.968065 0.049291
0.206800 0.972734 0.066816
0.291425 0.977288 0.082989
0.369682 0.981057 0.096078
0.440213 0.983303 0.104351
0.502498 0.983319 0.106353
0.562400 0.982589 0.106353
0.622303 0.981859 0.106353
0.682205 0.981130 0.106353
0.742107 0.980400 0.106353
0.802010 0.979670 0.106353
0.861912 0.978941 0.106353
0.921814 0.978211 0.106353
0.981717 0.977482 0.106353
1.000000 0.976752 0.106353
0.082312 0.997095 0.072951
0.116629 0.996488 0.088202
0.190416 0.996028 0.099739
0.259671 0.995786 0.105828
0.320336 0.995765 0.106353
0.380239 0.995765 0.106353
0.440141 0.995765 0.106353
0.500043 0.995765 0.106353
0.559946 0.995765 0.106353
0.619848 0.995765 0.106353
0.679751 0.995765 0.106353
0.739653 0.995765 0.106353
0.799555 0.995765 0.106353
0.859458 0.995765 0.106353
0.919360 0.995765 0.106353
0.979262 0.995765 0.106353
1.000000 0.995765 0.106353
0.006108 0.005236 0.034314
0.038780 0.006739 0.043273
0.083479 0.008036 0.050542
0.134810 0.008975 0.055260
0.184775 0.009401 0.056644
0.228589 0.009412 0.055464
0.272196 0.009412 0.054220
0.315802 0.009412 0.052977
0.359408 0.009412 0.051733
0.403015 0.009412 0.050489
0.446621 0.009412 0.049245
0.490227 0.009412 0.048002
0.533834 0.009412 0.046758
0.577440 0.009412 0.045514
0.621046 0.009412 0.044271
0.664652 0.009412 0.043027
0.708259 0.009412 0.041783
0.010730 0.048524 0.056188
0.049980 0.048412 0.056255
0.093587 0.047168 0.055011
0.137193 0.045924 0.053767
0.180799 0.044681 0.052524
0.224406 0.043437 0.051280
0.268012 0.042193 0.050036
0.311618 0.040950 0.048793
0.355224 0.039706 0.047549
0.398831 0.038462 0.046305
0.442437 0.037218 0.045062
0.486043 0.035975 0.043818
0.529650 0.034731 0.042574
0.573494 0.033492 0.041329
0.631403 0.032479 0.039974
0.708903 0.031674 0.038399
0.786821 0.030916 0.036566
0.010980 0.090322 0.053315
0.045796 0.089078 0.052071
0.089403 0.087834 0.050827
0.133009 0.086590 0.049584
0.176615 0.085347 0.048340
0.220222 0.084103 0.047096
0.263828 0.082859 0.045852
0.307434 0.081616 0.044609
0.351041 0.080372 0.043365
0.394647 0.079128 0.042121
0.440367 0.078168 0.040858
0.500753 0.078884 0.039429
0.577920 0.080968 0.037762
0.670530 0.083864 0.035835
0.775655 0.087054 0.033664
0.884043 0.090056 0.031303
0.942930 0.092429 0.028845
0.010980 0.130988 0.049131
0.041613 0.129744 0.047887
0.085219 0.128500 0.046643
0.128825 0.127257 0.045400
0.172431 0.126013 0.044156
0.216038 0.124769 0.042912
0.259644 0.123525 0.041669
0.307299 0.123741 0.040362
0.366702 0.127147 0.038852
0.438969 0.132788 0.037090
0.523550 0.139716 0.035070
0.618309 0.147018 0.032822
0.719517 0.153821 0.030413
0.821855 0.159290 0.027950
0.918416 0.162625 0.025574
0.999692 0.163067 0.023468
1.000000 0.161289 0.021639
0.010980 0.171654 0.044947
0.037429 0.170410 0.043703
0.081035 0.169166 0.042459
0.124753 0.168089 0.041212
0.172280 0.170792 0.039839
0.227708 0.177686 0.038241
0.292867 0.187393 0.036384
0.368000 0.198569 0.034276
0.451758 0.209910 0.031959
0.541203 0.220149 0.029516
0.631807 0.228057 0.027066
0.717452 0.232442 0.024765
0.790873 0.232273 0.022798
0.858875 0.230450 0.020975
0.926877 0.228627 0.019152
0.994879 0.226804 0.017329
1.000000 0.224981 0.015506
0.010840 0.213668 0.040735
0.033534 0.219821 0.039286
0.082462 0.230845 0.037595
0.138776 0.244965 0.035644
0.203508 0.260447 0.033453
0.276099 0.275592 0.031079
0.354400 0.288741 0.028617
0.434675 0.298272 0.026202
0.511595 0.302599 0.024002
0.580734 0.301434 0.022134
0.648736 0.299611 0.020311
0.716738 0.297788 0.018488
0.784740 0.295965 0.016665
0.852742 0.294142 0.014842
0.920744 0.292319 0.013019
0.988746 0.290496 0.011196
1.000000 0.288673 0.009373
0.006486 0.305608 0.034872
0.029937 0.325292 0.032606
0.091661 0.343848 0.030187
0.159907 0.359222 0.027724
0.231725 0.369398 0.025366
0.302579 0.372400 0.023295
0.370596 0.370596 0.021471
0.438598 0.368773 0.019648
0.506599 0.366949 0.017824
0.574601 0.365126 0.016001
0.642603 0.363303 0.014178
0.710605 0.361480 0.012355
0.778607 0.359657 0.010532
0.846609 0.357834 0.008709
0.914611 0.356011 0.006886
0.982613 0.354188 0.005063
1.000000 0.352365 0.003240
0.001021 0.431137 0.026845
0.024460 0.440823 0.024567
0.092455 0.441580 0.022630
0.160457 0.439757 0.020807
0.228459 0.437934 0.018984
0.296461 0.436111 0.017161
0.364463 0.434288 0.015338
0.432465 0.432465 0.013515
0.500467 0.430642 0.011692
0.568469 0.428819 0.009869
0.636471 0.426996 0.008046
0.704473 0.425173 0.006223
0.772474 0.423349 0.004399
0.840476 0.421526 0.002576
0.908478 0.419703 0.000753
0.976480 0.417880 0.000000
1.000000 0.416057 0.000000
0.000000 0.508918 0.020143
0.018320 0.507095 0.018320
0.086322 0.505272 0.016497
0.154324 0.503449 0.014674
0.222326 0.501626 0.012851
0.290328 0.499803 0.011028
0.358330 0.497980 0.009205
0.426332 0.496157 0.007382
0.494334 0.494334 0.005559
0.562336 0.492511 0.003736
0.630338 0.490688 0.001913
0.698340 0.488865 0.000090
0.766342 0.487042 0.000000
0.834344 0.485219 0.000000
0.902346 0.483396 0.000000
0.970347 0.481572 0.000000
1.000000 0.479749 0.000000
0.000000 0.572610 0.014010
0.012187 0.570787 0.012187
0.080189 0.568964 0.010364
0.148191 0.567141 0.008541
0.216193 0.565318 0.006718
0.284195 0.563495 0.004895
0.352197 0.561672 0.003072
0.420199 0.559849 0.001249
0.488201 0.558026 0.000000
0.556203 0.556203 0.000000
0.624205 0.554380 0.000000
0.692207 0.552557 0.000000
0.760209 0.550734 0.000000
0.828211 0.548911 0.000000
0.896213 0.547088 0.000000
0.964215 0.545265 0.000000
1.000000 0.543442 0.000000
0.000000 0.636302 0.007877
0.006054 0.634479 0.006054
0.074056 0.632656 0.004231
0.142058 0.630833 0.002408
0.210060 0.629010 0.000585
0.278062 0.627187 0.000000
0.346064 0.625364 0.000000
0.414066 0.623541 0.000000
0.482068 0.621718 0.000000
0.550070 0.619895 0.000000
0.618072 0.618072 0.000000
0.686074 0.616249 0.000000
0.754076 0.614426 0.000000
0.822078 0.612603 0.000000
0.890080 0.610780 0.000000
0.958900 0.610732 0.003011
1.000000 0.615367 0.013691
0.000000 0.699995 0.001745
0.000000 0.698172 0.000000
0.067924 0.696349 0.000000
0.135926 0.694526 0.000000
0.203927 0.692702 0.000000
0.271929 0.690879 0.000000
0.339931 0.689056 0.000000
0.407933 0.687233 0.000000
0.475935 0.685410 0.000000
0.543937 0.683587 0.000000
0.611939 0.681764 0.000000
0.680024 0.680019 0.000153
0.750912 0.681319 0.006112
0.824083 0.686506 0.019085
0.897441 0.694606 0.036843
0.969422 0.704573 0.057205
1.000000 0.715290 0.078037
0.000000 0.763687 0.000000
0.000000 0.761864 0.000000
0.061791 0.760041 0.000000
0.129793 0.758218 0.000000
0.197795 0.756395 0.000000
0.265797 0.754572 0.000000
0.333799 0.752749 0.000000
0.401800 0.750925 0.000000
0.470840 0.749713 0.001367
0.544912 0.751919 0.010141
0.621940 0.757220 0.025112
0.699520 0.764767 0.044068
0.775773 0.773636 0.064846
0.849350 0.782835 0.085328
0.919428 0.791298 0.103445
0.985713 0.797889 0.117176
1.000000 0.801402 0.124546
0.000000 0.827379 0.000000
0.000000 0.825556 0.000000
0.055658 0.823733 0.000000
0.123660 0.821910 0.000000
0.191662 0.820087 0.000000
0.263268 0.819673 0.003703
0.341409 0.822302 0.014991
0.422885 0.827336 0.031667
0.504977 0.834046 0.051534
0.585496 0.841634 0.072447
0.662782 0.849230 0.092305
0.735700 0.855895 0.109057
0.803645 0.860614 0.120698
0.866538 0.862305 0.125272
0.926476 0.861609 0.124613
0.986378 0.860879 0.123883
1.000000 0.860149 0.123153
0.000000 0.891071 0.000000
0.000384 0.889354 0.000348
0.057906 0.889639 0.007048
0.140827 0.892267 0.020555
0.227163 0.896706 0.038644
0.313884 0.902352 0.059138
0.398490 0.908532 0.079907
0.479007 0.914499 0.098870
0.553991 0.919437 0.113990
0.622524 0.922456 0.123283
0.684412 0.922705 0.125077
0.744314 0.921975 0.124347
0.804217 0.921245 0.123618
0.864119 0.920516 0.122888
0.924021 0.919786 0.122158
0.983924 0.919056 0.121429
1.000000 0.918327 0.120699
0.024686 0.961637 0.026726
0.050793 0.965212 0.045940
0.126227 0.969624 0.066778
0.214564 0.974325 0.087128
0.297661 0.978691 0.104925
0.373762 0.982030 0.118151
0.441637 0.983577 0.124838
0.502250 0.983071 0.124811
0.562153 0.982341 0.124082
0.622055 0.981612 0.123352
0.681957 0.980882 0.122622
0.741860 0.980152 0.121893
0.801762 0.979423 0.121163
0.861664 0.978693 0.120433
0.921567 0.977963 0.119704
0.981469 0.977234 0.118974
1.000000 0.976504 0.118244
0.088505 0.996876 0.094010
0.122259 0.996311 0.110374
0.194384 0.995918 0.121445
0.260180 0.995765 0.125270
0.320089 0.995765 0.124546
0.379991 0.995765 0.123816
0.439893 0.995765 0.123086
0.499796 0.995765 0.122357
0.559698 0.995765 0.121627
0.619600 0.995765 0.120897
0.679503 0.995765 0.120168
0.739405 0.995765 0.119438
0.799307 0.995765 0.118708
0.859210 0.995765 0.117979
0.919112 0.995765 0.117249
0.979014 0.995765 0.116519
1.000000 0.995765 0.115790
0.006720 0.005760 0.064935
0.041169 0.007210 0.080333
0.086911 0.008403 0.092512
0.137552 0.009185 0.099908
0.184561 0.009412 0.101135
0.228167 0.009412 0.099892
0.271773 0.009412 0.098648
0.315380 0.009412 0.097404
0.358986 0.009412 0.096160
0.402592 0.009412 0.094917
0.446199 0.009412 0.093673
0.489805 0.009412 0.092429
0.533411 0.009412 0.091186
0.577017 0.009412 0.089942
0.620624 0.009412 0.088698
0.664230 0.009412 0.087455
0.707996 0.009407 0.086223
0.010893 0.048843 0.101119
0.049558 0.047989 0.100683
0.093164 0.046746 0.099439
0.136771 0.045502 0.098195
0.180377 0.044258 0.096951
0.223983 0.043015 0.095708
0.267589 0.041771 0.094464
0.311196 0.040527 0.093220
0.354802 0.039283 0.091977
0.398408 0.038040 0.090733
0.442015 0.036796 0.089489
0.485621 0.035552 0.088245
0.529227 0.034309 0.087002
0.575382 0.033113 0.085949
0.640185 0.032191 0.086123
0.723160 0.031419 0.087292
0.802046 0.030646 0.089027
0.010980 0.089899 0.097742
0.045374 0.088655 0.096499
0.088980 0.087412 0.095255
0.132587 0.086168 0.094011
0.176193 0.084924 0.092767
0.219799 0.083681 0.091524
0.263406 0.082437 0.090280
0.307012 0.081193 0.089036
0.350618 0.079950 0.087793
0.394224 0.078706 0.086549
0.443532 0.078221 0.085869
0.508958 0.079467 0.086457
0.590520 0.081887 0.087880
0.686479 0.084939 0.089721
0.793505 0.088118 0.091604
0.902010 0.090954 0.093187
0.955897 0.093018 0.094169
0.010980 0.130565 0.093558
0.041190 0.129322 0.092315
0.084796 0.128078 0.091071
0.128403 0.126834 0.089827
0.172009 0.125590 0.088584
0.215615 0.124347 0.087340
0.259437 0.123196 0.086134
0.310412 0.124586 0.085959
0.373285 0.128860 0.086901
0.448696 0.135043 0.088522
0.535695 0.142198 0.090421
0.631741 0.149427 0.092231
0.732705 0.155869 0.093629
0.832866 0.160700 0.094325
0.924916 0.163136 0.094068
1.000000 0.162493 0.092668
1.000000 0.160670 0.090845
0.010980 0.171231 0.089374
0.037006 0.169988 0.088131
0.080613 0.168744 0.086887
0.124856 0.168450 0.085912
0.174175 0.172733 0.086196
0.231789 0.180736 0.087435
0.299128 0.191090 0.089201
0.376031 0.202466 0.091108
0.460748 0.213573 0.092804
0.549940 0.223156 0.093978
0.638676 0.230000 0.094354
0.720438 0.232924 0.093695
0.790254 0.231654 0.092004
0.858256 0.229831 0.090181
0.926258 0.228008 0.088358
0.994260 0.226185 0.086535
1.000000 0.224362 0.084712
0.010646 0.215100 0.085876
0.033212 0.223108 0.086560
0.083328 0.235380 0.088038
0.141141 0.250156 0.089899
0.207281 0.265712 0.091767
0.280788 0.280364 0.093307
0.359113 0.292464 0.094220
0.438114 0.300403 0.094245
0.512063 0.302609 0.093158
0.580115 0.300815 0.091340
0.648117 0.298992 0.089517
0.716119 0.297169 0.087694
0.784121 0.295346 0.085871
0.852123 0.293523 0.084048
0.920125 0.291700 0.082225
0.988127 0.289877 0.080402
1.000000 0.288054 0.078579
0.005871 0.312290 0.090596
0.029475 0.331824 0.092382
0.092358 0.349528 0.093727
0.161187 0.363360 0.094344
0.232611 0.371320 0.093988
0.301975 0.371800 0.092500
0.369976 0.369976 0.090676
0.437978 0.368153 0.088853
0.505980 0.366330 0.087030
0.573982 0.364507 0.085207
0.641984 0.362684 0.083384
0.709986 0.360861 0.081561
0.777988 0.359038 0.079738
0.845990 0.357215 0.077915
0.913992 0.355392 0.076092
0.981994 0.353569 0.074269
1.000000 0.351746 0.072446
0.000672 0.435338 0.094339
0.023837 0.442083 0.093575
0.091836 0.440961 0.091836
0.159838 0.439138 0.090013
0.227840 0.437315 0.088190
0.295842 0.435492 0.086367
0.363844 0.433669 0.084544
0.431846 0.431846 0.082721
0.499848 0.430023 0.080898
0.567849 0.428199 0.079074
0.635851 0.426376 0.077251
0.703853 0.424553 0.075428
0.771855 0.422730 0.073605
0.839857 0.420907 0.071782
0.907859 0.419084 0.069959
0.975861 0.417261 0.068136
1.000000 0.415438 0.066313
0.000000 0.508299 0.089349
0.017701 0.506476 0.087526
0.085703 0.504653 0.085703
0.153705 0.502830 0.083880
0.221707 0.501007 0.082057
0.289709 0.499184 0.080234
0.357711 0.497361 0.078411
0.425713 0.495538 0.076588
0.493715 0.493715 0.074765
0.561717 0.491892 0.072942
0.629719 0.490069 0.071119
0.697721 0.488246 0.069296
0.765723 0.486423 0.067473
0.833724 0.484599 0.065649
0.901726 0.482776 0.063826
0.969728 0.480953 0.062003
1.000000 0.479130 0.060180
0.000000 0.571991 0.083216
0.011568 0.570168 0.081393
0.079570 0.568345 0.079570
0.147572 0.566522 0.077747
0.215574 0.564699 0.075924
0.283576 0.562876 0.074101
0.351578 0.561053 0.072278
0.419580 0.559230 0.070455
0.487582 0.557407 0.068632
0.555584 0.555584 0.066809
0.623586 0.553761 0.064986
0.691588 0.551938 0.063163
0.759590 0.550115 0.061340
0.827592 0.548292 0.059517
0.895594 0.546469 0.057694
0.963596 0.544646 0.055871
1.000000 0.542822 0.054047
0.000000 0.635683 0.077083
0.005435 0.633860 0.075260
0.073437 0.632037 0.073437
0.141439 0.630214 0.071614
0.209441 0.628391 0.069791
0.277443 0.626568 0.067968
0.345445 0.624745 0.066145
0.413447 0.622922 0.064322
0.481449 0.621099 0.062499
0.549451 0.619276 0.060676
0.617453 0.617453 0.058853
0.685455 0.615630 0.057030
0.753457 0.613807 0.055207
0.821459 0.611984 0.053384
0.889499 0.610227 0.051683
0.959078 0.611824 0.056099
1.000000 0.617835 0.068442
0.000000 0.699376 0.070951
0.000000 0.697552 0.069127
0.067304 0.695729 0.067304
0.135306 0.693906 0.065481
0.203308 0.692083 0.063658
0.271310 0.690260 0.061835
0.339312 0.688437 0.060012
0.407314 0.686614 0.058189
0.475316 0.684791 0.056366
0.543318 0.682968 0.054543
0.611320 0.681145 0.052720
0.680007 0.679967 0.052239
0.752143 0.682692 0.059788
0.825944 0.688981 0.074481
0.899443 0.697836 0.094127
0.971203 0.708187 0.116459
1.000000 0.718892 0.139142
0.000000 0.763068 0.064818
0.000000 0.761245 0.062995
0.061172 0.759422 0.061172
0.129174 0.757599 0.059349
0.197176 0.755776 0.057526
0.265177 0.753952 0.055702
0.333179 0.752129 0.053879
0.401181 0.750306 0.052056
0.471863 0.750065 0.054025
0.547509 0.753413 0.064424
0.625368 0.759576 0.081178
0.703165 0.767679 0.102068
0.779150 0.776775 0.124801
0.852102 0.785847 0.147018
0.921326 0.793805 0.166283
0.986658 0.799490 0.180093
1.000000 0.801670 0.185871
0.000000 0.826760 0.058685
0.000000 0.824937 0.056862
0.055039 0.823114 0.055039
0.123041 0.821291 0.053216
0.191341 0.819576 0.051702
0.265690 0.820254 0.056938
0.345622 0.823777 0.069903
0.428022 0.829465 0.088424
0.510301 0.836566 0.110253
0.590397 0.844258 0.133076
0.666778 0.851647 0.154503
0.738439 0.857768 0.172076
0.804901 0.861584 0.183264
0.866326 0.862090 0.185727
0.926228 0.861361 0.184997
0.986130 0.860631 0.184267
1.000000 0.859901 0.183538
0.000000 0.890452 0.052552
0.001899 0.889158 0.052579
0.062023 0.890294 0.060876
0.146846 0.893600 0.076119
0.234092 0.898520 0.096108
0.320861 0.904427 0.118572
0.404781 0.910622 0.141166
0.484006 0.916335 0.161479
0.557221 0.920724 0.177024
0.623636 0.922877 0.185245
0.684164 0.922457 0.185461
0.744066 0.921727 0.184731
0.803969 0.920997 0.184002
0.863871 0.920268 0.183272
0.923773 0.919538 0.182542
0.983676 0.918809 0.181813
1.000000 0.918079 0.181083
0.030480 0.962726 0.082965
0.058545 0.966642 0.104122
0.134768 0.971218 0.126908
0.222049 0.975879 0.148955
0.303360 0.979977 0.167823
0.377072 0.982797 0.181002
0.442085 0.983548 0.185907
0.502002 0.982823 0.185195
0.561905 0.982093 0.184466
0.621807 0.981364 0.183736
0.681709 0.980634 0.183006
0.741612 0.979905 0.182277
0.801514 0.979175 0.181547
0.861417 0.978445 0.180818
0.921319 0.977716 0.180088
0.981221 0.976986 0.179358
1.000000 0.976256 0.178629
0.094363 0.996670 0.156323
0.127215 0.996155 0.173414
0.197302 0.995836 0.183883
0.259938 0.995765 0.185659
0.319841 0.995765 0.184930
0.379743 0.995765 0.184200
0.439645 0.995765 0.183470
0.499548 0.995765 0.182741
0.559450 0.995765 0.182011
0.619353 0.995765 0.181282
0.679255 0.995765 0.180552
0.739157 0.995765 0.179822
0.799060 0.995765 0.179093
0.858962 0.995765 0.178363
0.918864 0.995765 0.177633
0.978767 0.995765 0.176904
1.000000 0.995765 0.176174
0.007317 0.006272 0.100310
0.043347 0.007651 0.121372
0.089822 0.008722 0.137199
0.139304 0.009329 0.145523
0.184138 0.009412 0.145563
0.227745 0.009412 0.144319
0.271351 0.009412 0.143076
0.314957 0.009412 0.141832
0.358564 0.009412 0.140588
0.402170 0.009412 0.139344
0.445776 0.009412 0.138101
0.489382 0.009412 0.136857
0.532989 0.009412 0.135613
0.576595 0.009412 0.134370
0.620201 0.009412 0.133126
0.663808 0.009412 0.131882
0.709632 0.009340 0.131001
